X:1
T:C'est à grand tort
T:C'est à grand tort
T:Thomas Crecquillon
T:Source : Neufiesme Livre de Chansons à 4 parties---Paris---N.du Chemin---1551. Editor : André Vierendeels (25/12/14).
T:-natural
C:Thomas Crecquillon
%%score [ 1 2 [ 3 4 ] ]
L:1/8
Q:1/4=76
M:2/2
K:F
V:1 treble nm="Superius" snm="S"
V:2 treble nm="Altus" snm="A"
V:3 treble-8 nm="Tenor 1" snm="T 1"
V:4 treble-8 nm="Tenor 2" snm="T 2"
V:1
 F3 G AB c2- | c2 B2 c2 A2 | G2 GA Bc d2- | d2 c4 B2 | c8 | z2 c2 c2 A2 | B2 c2 F2 F2 | G2 B4 AG | %8
w: C'est- * * * à|_ grand tort, c'est|à grand _ _ _ _|_ _ _|tort,|qu'on dict que|le pen- ser, que-|le pen- * *|
w: Car _ _ _ ie|_ sous- tient, car|ie sous- * * * *||tiens,|qu'il ne peult|of- fen- ser, of-|fen- * * *|
 A2 A2 B4 | c4 c2 c2 | f2 f2 (3:2:2f4 e2 | d2 c2 B2 A2 | G2 F4 E2 |[M:2/4] F4 ::[M:2/2] B8 | %15
w: ser, n'est que|lan- gueur d'u-|ne cho- se- cer-|tai- * * *||ne,|O|
w: ser, cel- le|qui est de|loy- al pen- ser|plei- * * *||ne,||
 A2 G2 F2 f2- | fe d2 c2 B2 | A2 z c c2 c2 | d2 d2 c2 B2 | A2 GF G4 | A2 z A B2 A2 | A6 A2 | %22
w: doulx pen- ser, O|_ _ _ doulx pen-|ser qui cau- se'à|aul- truy pei- *||ne, et à mon|coeur per-|
w: |||||||
 B6 A2 | G2 F4 ED | E8 | z2 c2 c2 c2 | A2 c2 B2 d2 | c2 B2 A2 G2- | GE F2 G4 | E4 z2 c2 | %30
w: faict con-|ten _ te _|ment,|oc- troy- ez|moy quel- que ioy-|e cer- tai- *||ne, de|
w: ||||||||
 d2 d2 B2 G2 | c4 A4 | B3 A GF G2- | G2 F4 E2 | F2 z c d2 d2 | B2 G2 c4 | A4 (3:2:2B4 A2 | %37
w: ce pen- ser que|i'ay in-|ces- * * * *|* * sa-|ment, de ce pen-|ser que i'ay|in- ces- *|
w: |||||||
 GF G4 F2- | F2 E2 F4- | F8 :| %40
w: |* sa- ment.|_|
w: |||
V:2
 z4 C3 D | EF G2 C2 F2- | F2 E2 D2 z G | E2 F2 G4 | G4 E2 F2 | G2 G2 A2 F2 | G2 A2 D2 F2- | %7
w: C'est _|_ _ _ _ à|_ grand tort, c'est|à grand tort,|qu'on dict que|le pen- ser, que|le- pen- ser, le|
w: Car _|_ _ _ _ ie|_ sous- tiens, car|ie sous- tiens|qu'il ne peult|of- fen- ser, qu'il|ne peult of- *|
 F2 E2 F4 | z2 F4 F2 | G4 A4- | A2 A2 B4- | B2 A2 G2 F2 | _E2 D2 C4 |[M:2/4] A,4 ::[M:2/2] F8 | %15
w: _ pen- ser,|n'est que|lan- gueur|_ d'u- ne|_ cho- se cer-|tai- * *|ne,|O|
w: * fen- ser,|cel- le|qui est|_ de loy-|* al pen- ser|plei- * *|ne,||
 F2 E2 D4 | A4 A2 G2 | F2 z A G2 A2 | B2 B2 A2 G2- | G2 F4 E2 | F2 z F G2 F2 | F4 z2 F2 | F6 _E2 | %23
w: doulx pen- ser,|O doulx pen-|ser qui cau- se'à|aul- truy pei- *||ne, et à mon|coeur per-|faict con-|
w: ||||||||
 _E2 C2 C4- | C8 | z2 G2 A2 A2 | F3 F F2 B2 | A2 G2 E2 D2 | E2 DC D4 | C2 z G A2 A2 | F2 D2 G4 | %31
w: ten- te- ment,|_|oc- troy- ez|moy quel- que ioy-|e cer- tai- *||ne, de ce pen-|ser que i'ay|
w: ||||||||
 E4 F3 E | DC D4 C2- | C2 B,2 C2 z G | A2 A2 F2 D2 | G4 E4 | F3 E DC D2- | D2 C4 B,2 | C8- | C8 :| %40
w: in- ces- *||* sa- ment, de|ce pen- ser que|i'ay in-|ces- * * * *|* * sa-|ment.|_|
w: |||||||||
V:3
 z2 F3 G AB | c2 G2 A2 F2 | c4 z2 B2 | c4 d4 | c4 z2 c2 | d2 e2 f2 c2 | d2 f3 e d2- | d2 cB c4- | %8
w: C'est _ _ _|_ _ à grand|tort, c'est|à grand|rort, qu'on|dict que le pen-|ser, que le pen-|* * * ser,|
w: Car _ _ _|_ _ ie sous-|tiens, car|ie sous-|tiens qu'il|ne peult of- fen-|ser, of- * fen-|* * * ser,|
 c2 c2 d2 f2- | f2 e2 f3 e | d2 c2 dc de | (3:2:2f4 e2 d3 c | B2 A2 G4 |[M:2/4] F4 ::[M:2/2] d8 | %15
w: _ n'est que lan-|* * gueur d'u-|ne cho- * * * *|se cer- tai- *||ne,|O|
w: _ cel- le qui|_ est de _|_ loy- al _ _ _|_ pen- ser- _|plei- * *|ne,||
 c2 c2 A4 | f4 e2 d2 | c2 z f e2 f2 | Bc de f2 B2 | c2 d2 c4 | F2 z c d2 c2 | c6 c2 | d6 c2 | %23
w: doulx pen- ser,|O doulx pen-|ser qui cau- se'à|aul- * * * truy pei-||ne, et à mon|coeur per-|faict con-|
w: ||||||||
 B2 A2 G4 | z2 g2 g2 g2 | e2 e2 f4 | c4 d2 f2- | fe d2 c2 d2- |"^-natural" dc c4 B2 | c4 F4 | z8 | %31
w: ten- te- ment,|oc- troy- ez|moy quel- que|ioy- e cer-|* * * tai- *||* ne,||
w: ||||||||
 c4 d2 d2 | B2 G2 c2 c2 | A2 GF G2 G2 | F4 z4 | z4 z2 c2 | d2 d2 B2 G2 | c2 c2 A2 GF | G2 G2 F4- | %39
w: de ce pen-|ser que i'ay in-|ces- * * * sa-|ment,|que|i'ay in- ces- sa-|ment, que i'ay in- *|ces- sa- ment.|
w: ||||||||
 F8 :| %40
w: _|
w: |
V:4
 z8 | z8 | C4 G4 | A4 G4 | z2 c2 c2 A2 | B2 c2 F2 F2 | B2 A2 B3 A | G4 F4- | F2 F2 B2 d2 | c4 F4 | %10
w: ||C'est à|grand tort,|qu'on dict que|le pen- ser, que|le pen- * *|* ser,|_ n'est que lan-|* gueur|
w: ||Car ie|sous- tiens|qu'il ne peult|of- fen- ser, of-|fen- * * *|* ser,|_ cel- * le|qui est|
 z2 F2 B4- | B2 F2 G2 D2 | _E2 F2 C4 |[M:2/4] F4 ::[M:2/2] B,8 | F2 C2 D4- | D2 D2 A2 B2 | F4 z4 | %18
w: d'u- ne|_ cho- se cer-|tai- * *|ne,|O|doulx pen- ser,|_ O doulx pen-|ser,|
w: de loy-|* al pen- ser|plei- * *|ne,|||||
 z8 | z8 | z2 F2 B2 F2 | F6 F2 | B,6 C2 | _E2 F2 C4- | C4 z2 c2 | c2 c2 F4- | F2 F2 B2 B2 | %27
w: ||et à mon|coeur per-|faict con-|ten- te- ment,|_ oc-|troy- ez moy|_ quel- que ioy-|
w: |||||||||
 F2 G2 A2 B2 | c2 A2 G4 | C4 z4 | z4 G4 | A2 A2 F2 D2 | G2 G2 E2 DC | D2 D2 C4 | z8 | G4 A2 A2 | %36
w: e cer- tai- *||ne,|de|ce pen- ser que|i'ay in- ces- * *|* sa- ment,||de- ce pen-|
w: |||||||||
 F2 D2 G2 G2 | E2 DC D2 D2 | C4 F4- | F8 :| %40
w: ser que i'ay in-|ces- * * * sa-|ment. _|_|
w: ||||

